places/48/folder-development.svg

<svg height="48" viewBox="0 0 12.7 12.7" width="48" xmlns="http://www.w3.org/2000/svg"><defs id="kuyenfoldercolor">
    <style type="text/css" id="current-color-scheme">
      .ColorScheme-Highlight {
        color:#03b2fe;
      }
      </style>
  </defs><g transform="translate(0 -284.29999)"><g transform="translate(5.027084 1.852087)"><path d="m-4.2333332 282.97707c-.4351619 0-.79375.35859-.79375.79375v10.31875c0 .43516.3585881.79375.79375.79375h11.1124998c.435162 0 .79375-.35859.79375-.79375v-8.73125c0-.43516-.358588-.79375-.79375-.79375h-5.8203163c-.13387419 0-.20482799-.0441-.30540779-.15813-.10058-.11401-.2026518-.29867-.3162596-.50074-.1136084-.20207-.2406949-.42267-.4335653-.60669-.1928707-.18401-.466638-.32194-.7973674-.32194z" style="fill:currentColor"
class="ColorScheme-Highlight"/><path d="m-4.2333332 283.24217h3.43958231c1.0583334 0 .9912861 1.5875 1.85208339 1.5875h5.8208331c.293159 0 .529167.23601.529167.52917v8.73124c0 .29316-.236008.52917-.529167.52917h-11.1124988c-.2931585 0-.5291665-.23601-.5291665-.52917v-10.31874c0-.29316.236008-.52917.5291665-.52917z" fill="#fff" fill-opacity=".08"/><path d="m-4.2333337 282.97707c-.4351615 0-.79375.35859-.79375.79375v10.31875c0 .43516.3585885.79375.79375.79375h11.1125c.4351616 0 .79375-.35859.79375-.79375v-8.73125c0-.43516-.3585884-.79375-.79375-.79375h-5.8203166c-.13387401 0-.20482801-.0441-.30540771-.15813-.1005799-.11401-.2026521-.29868-.3162597-.50075-.1136083-.20207-.2406951-.42266-.4335653-.60668-.1928705-.18401-.4666383-.32194-.79736737-.32194zm0 .2651h3.43958332c1.05833237 0 .99128687 1.5875 1.85208338 1.5875h5.8208333c.2931587 0 .5291667.236.5291667.52916v8.73125c0 .29316-.236008.52917-.5291667.52917h-11.1125c-.2931582 0-.5291667-.23601-.5291667-.52917v-10.31875c0-.29316.2360085-.52916.5291667-.52916z" fill-opacity=".2"/><path d="m1.0583333 284.56457c-.29652439 0-.54026169.1538-.70228279.33745-.162021.18365-.2708169.39637-.3803385.59117-.1095214.19481-.2183329.37005-.3374472.4837-.1191141.11364-.2335774.17518-.4320149.17518h-3.43958331c-.4351626 0-.79375.35859-.79375.79375v7.14375c0 .43516.3585874.79375.79375.79375h11.1125c.435163 0 .79375-.35859.79375-.79375v-8.73125c0-.43516-.358587-.79375-.79375-.79375z" style="fill:currentColor"
class="ColorScheme-Highlight"/><path d="m1.0583329 284.82967c-.86079231 0-.79375628 1.5875-1.85208337 1.5875h-3.43958333c-.2931567 0-.5291667.23602-.5291667.52917v7.14375c0 .29316.23601.52916.5291667.52916h11.1125c.2931562 0 .5291667-.236.5291667-.52916v-8.73125c0-.29315-.2360105-.52917-.5291667-.52917zm-2.1166667 3.43907h4.4979167c.1465782 0 .2645833.118.2645833.26458v3.70417c0 .14658-.1180051.26458-.2645833.26458h-4.4979167c-.1465784 0-.2645833-.118-.2645833-.26458v-3.70417c0-.14658.1180049-.26458.2645833-.26458zm.79375.79375v.52916h-.52916667v.52917h.52916667v.52917h-.52916667v.52916h.52916667v.52917h.52916667v-.52917h.52916666v.52917h.52916667v-.52917h.5291667v-.52916h-.5291667v-.52917h.5291667v-.52917h-.5291667v-.52916h-.52916667v.52916h-.52916666v-.52916zm.52916667 1.05833h.52916666v.52917h-.52916666zm1.85208333 1.05833v.52917h1.0583333v-.52917z" fill="#fff" fill-opacity=".3"/><path d="m1.0583325 284.56457c-.2965241 0-.5402618.1538-.7022827.33745s-.2708171.39638-.3803386.59118c-.1095213.19481-.2183329.37004-.3374471.48369-.119114.11364-.2335777.17518-.432015.17518h-3.4395833c-.4351622 0-.79375.35859-.79375.79375v7.14375c0 .43516.3585878.79375.79375.79375h11.1125004c.435162 0 .79375-.35859.79375-.79375v-8.73125c0-.43516-.358588-.79375-.79375-.79375zm0 .2651h5.8208337c.293157 0 .529166.23602.529166.52917v8.73125c0 .29316-.236009.52916-.529166.52916h-11.1125004c-.2931582 0-.5291667-.236-.5291667-.52916v-7.14375c0-.29315.2360085-.52917.5291667-.52917h3.4395833c1.0583324 0 .9912869-1.5875 1.8520834-1.5875z" fill-opacity=".2"/></g><path d="m3.96875 290.12082c-.1465785 0-.2645833.11801-.2645833.26459v3.70416c0 .14658.1180048.26459.2645833.26459h4.4979167c.1465784 0 .2645833-.11801.2645833-.26459v-3.70416c0-.14658-.1180049-.26459-.2645833-.26459zm.79375.79375h.5291667v.52917h.5291666v-.52917h.5291667v.52917h.5291667v.52917h-.5291667v.52916h.5291667v.52917h-.5291667v.52917h-.5291667v-.52917h-.5291666v.52917h-.5291667v-.52917h-.5291667v-.52917h.5291667v-.52916h-.5291667v-.52917h.5291667zm.5291667 1.05834v.52916h.5291666v-.52916zm1.8520833 1.05833h1.0583333v.52917h-1.0583333z" fill-opacity=".2" opacity=".99"/></g></svg>

<?xml version="1.0" encoding="UTF-8" standalone="no"?>
<!-- Created with Inkscape (http://www.inkscape.org/) -->

<svg
   width="48"
   height="48"
   viewBox="0 0 12.7 12.7"
   version="1.1"
   id="svg8"
   inkscape:version="1.2.1 (9c6d41e410, 2022-07-14)"
   sodipodi:docname="folder-script.svg"
   xmlns:inkscape="http://www.inkscape.org/namespaces/inkscape"
   xmlns:sodipodi="http://sodipodi.sourceforge.net/DTD/sodipodi-0.dtd"
   xmlns:xlink="http://www.w3.org/1999/xlink"
   xmlns="http://www.w3.org/2000/svg"
   xmlns:svg="http://www.w3.org/2000/svg"
   xmlns:rdf="http://www.w3.org/1999/02/22-rdf-syntax-ns#"
   xmlns:cc="http://creativecommons.org/ns#"
   xmlns:dc="http://purl.org/dc/elements/1.1/">
  <defs
     id="defs2">
    <linearGradient
       inkscape:collect="always"
       xlink:href="#linearGradient149929"
       id="linearGradient149931"
       x1="-2.9104161"
       y1="286.15259"
       x2="-2.9104161"
       y2="282.97757"
       gradientUnits="userSpaceOnUse" />
    <linearGradient
       inkscape:collect="always"
       id="linearGradient149929">
      <stop
         style="stop-color:#4ea0ee;stop-opacity:1;"
         offset="0"
         id="stop149925" />
      <stop
         style="stop-color:#2988e7;stop-opacity:1;"
         offset="1"
         id="stop149927" />
    </linearGradient>
  </defs>
  <sodipodi:namedview
     id="base"
     pagecolor="#ffffff"
     bordercolor="#666666"
     borderopacity="1.0"
     inkscape:pageopacity="0.0"
     inkscape:pageshadow="2"
     inkscape:zoom="22.4"
     inkscape:cx="30.602678"
     inkscape:cy="27.790178"
     inkscape:document-units="px"
     inkscape:current-layer="layer1"
     showgrid="true"
     units="px"
     inkscape:showpageshadow="false"
     inkscape:snap-bbox="true"
     inkscape:bbox-paths="true"
     inkscape:bbox-nodes="true"
     inkscape:snap-bbox-edge-midpoints="true"
     inkscape:snap-bbox-midpoints="true"
     inkscape:object-paths="true"
     inkscape:snap-intersection-paths="true"
     inkscape:window-width="2160"
     inkscape:window-height="1335"
     inkscape:window-x="0"
     inkscape:window-y="0"
     inkscape:window-maximized="1"
     inkscape:pagecheckerboard="0"
     inkscape:deskcolor="#d1d1d1">
    <inkscape:grid
       type="xygrid"
       id="grid815" />
  </sodipodi:namedview>
  <metadata
     id="metadata5">
    <rdf:RDF>
      <cc:Work
         rdf:about="">
        <dc:format>image/svg+xml</dc:format>
        <dc:type
           rdf:resource="http://purl.org/dc/dcmitype/StillImage" />
        <dc:title />
      </cc:Work>
    </rdf:RDF>
  </metadata>
  <g
     inkscape:label="Capa 1"
     inkscape:groupmode="layer"
     id="layer1"
     transform="translate(0,-284.29999)">
    <g
       id="g3782"
       transform="translate(5.0270834,1.8520867)">
      <path
         inkscape:connector-curvature="0"
         style="color:#000000;font-style:normal;font-variant:normal;font-weight:normal;font-stretch:normal;font-size:medium;line-height:normal;font-family:sans-serif;font-variant-ligatures:normal;font-variant-position:normal;font-variant-caps:normal;font-variant-numeric:normal;font-variant-alternates:normal;font-feature-settings:normal;text-indent:0;text-align:start;text-decoration:none;text-decoration-line:none;text-decoration-style:solid;text-decoration-color:#000000;letter-spacing:normal;word-spacing:normal;text-transform:none;writing-mode:lr-tb;direction:ltr;text-orientation:mixed;dominant-baseline:auto;baseline-shift:baseline;text-anchor:start;white-space:normal;shape-padding:0;clip-rule:nonzero;display:inline;overflow:visible;visibility:visible;opacity:1;isolation:auto;mix-blend-mode:normal;color-interpolation:sRGB;color-interpolation-filters:linearRGB;solid-color:#000000;solid-opacity:1;vector-effect:none;fill:#286bb2;fill-opacity:1;fill-rule:nonzero;stroke:none;stroke-width:0.529167;stroke-linecap:round;stroke-linejoin:round;stroke-miterlimit:4;stroke-dasharray:none;stroke-dashoffset:0;stroke-opacity:1;color-rendering:auto;image-rendering:auto;shape-rendering:auto;text-rendering:auto;enable-background:accumulate"
         d="m -4.2333332,282.97707 c -0.4351619,0 -0.79375,0.35859 -0.79375,0.79375 v 10.31875 c 0,0.43516 0.3585881,0.79375 0.79375,0.79375 H 6.8791666 c 0.435162,0 0.79375,-0.35859 0.79375,-0.79375 v -8.73125 c 0,-0.43516 -0.358588,-0.79375 -0.79375,-0.79375 H 1.0588503 c -0.13387419,0 -0.20482799,-0.0441 -0.30540779,-0.15813 -0.10058,-0.11401 -0.2026518,-0.29867 -0.3162596,-0.50074 -0.1136084,-0.20207 -0.2406949,-0.42267 -0.4335653,-0.60669 -0.1928707,-0.18401 -0.466638,-0.32194 -0.7973674,-0.32194 z"
         id="path1233" />
      <path
         style="opacity:1;vector-effect:none;fill:url(#linearGradient149931);fill-opacity:1;stroke:none;stroke-width:0.529167;stroke-linecap:round;stroke-linejoin:round;stroke-miterlimit:4;stroke-dasharray:none;stroke-dashoffset:0;stroke-opacity:1"
         d="m -4.2333332,283.24217 h 3.43958231 c 1.0583334,0 0.9912861,1.5875 1.85208339,1.5875 h 5.8208331 c 0.293159,0 0.529167,0.23601 0.529167,0.52917 v 8.73124 c 0,0.29316 -0.236008,0.52917 -0.529167,0.52917 H -4.2333332 c -0.2931585,0 -0.5291665,-0.23601 -0.5291665,-0.52917 v -10.31874 c 0,-0.29316 0.236008,-0.52917 0.5291665,-0.52917 z"
         id="rect993"
         inkscape:connector-curvature="0"
         sodipodi:nodetypes="sccssssssss" />
      <path
         inkscape:connector-curvature="0"
         style="color:#000000;font-style:normal;font-variant:normal;font-weight:normal;font-stretch:normal;font-size:medium;line-height:normal;font-family:sans-serif;font-variant-ligatures:normal;font-variant-position:normal;font-variant-caps:normal;font-variant-numeric:normal;font-variant-alternates:normal;font-feature-settings:normal;text-indent:0;text-align:start;text-decoration:none;text-decoration-line:none;text-decoration-style:solid;text-decoration-color:#000000;letter-spacing:normal;word-spacing:normal;text-transform:none;writing-mode:lr-tb;direction:ltr;text-orientation:mixed;dominant-baseline:auto;baseline-shift:baseline;text-anchor:start;white-space:normal;shape-padding:0;clip-rule:nonzero;display:inline;overflow:visible;visibility:visible;opacity:1;isolation:auto;mix-blend-mode:normal;color-interpolation:sRGB;color-interpolation-filters:linearRGB;solid-color:#000000;solid-opacity:1;vector-effect:none;fill:#3182d9;fill-opacity:1;fill-rule:nonzero;stroke:none;stroke-width:0.529167;stroke-linecap:round;stroke-linejoin:round;stroke-miterlimit:4;stroke-dasharray:none;stroke-dashoffset:0;stroke-opacity:1;color-rendering:auto;image-rendering:auto;shape-rendering:auto;text-rendering:auto;enable-background:accumulate"
         d="m 1.0583333,284.56457 c -0.29652439,0 -0.54026169,0.1538 -0.70228279,0.33745 -0.162021,0.18365 -0.2708169,0.39637 -0.3803385,0.59117 -0.1095214,0.19481 -0.2183329,0.37005 -0.3374472,0.4837 -0.1191141,0.11364 -0.2335774,0.17518 -0.4320149,0.17518 H -4.2333334 c -0.4351626,0 -0.79375,0.35859 -0.79375,0.79375 v 7.14375 c 0,0.43516 0.3585874,0.79375 0.79375,0.79375 h 11.1125 c 0.435163,0 0.79375,-0.35859 0.79375,-0.79375 v -8.73125 c 0,-0.43516 -0.358587,-0.79375 -0.79375,-0.79375 z"
         id="path1270" />
      <path
         style="opacity:1;vector-effect:none;fill:#50c1f9;fill-opacity:1;stroke:none;stroke-width:0.529167;stroke-linecap:round;stroke-linejoin:round;stroke-miterlimit:4;stroke-dasharray:none;stroke-dashoffset:0;stroke-opacity:1"
         d="m -4.2333325,286.41717 h 3.43958241 c 1.0583334,0 0.9912861,-1.5875 1.85208339,-1.5875 h 5.8208333 c 0.293158,0 0.529167,0.23601 0.529167,0.52916 v 8.73125 c 0,0.29316 -0.236009,0.52917 -0.529167,0.52917 H -4.2333325 c -0.2931585,0 -0.5291665,-0.23601 -0.5291665,-0.52917 v -7.14375 c 0,-0.29315 0.236008,-0.52916 0.5291665,-0.52916 z"
         id="rect993-6"
         inkscape:connector-curvature="0"
         sodipodi:nodetypes="sccssssssss" />
    </g>
    <path
       id="rect906"
       style="opacity:0.99;vector-effect:none;fill:#e0f6ff;fill-opacity:1;stroke:none;stroke-width:0.529167;stroke-linecap:round;stroke-linejoin:round;stroke-miterlimit:4;stroke-dasharray:none;stroke-dashoffset:0;stroke-opacity:1"
       d="M 3.96875 290.12082 C 3.8221715 290.12082 3.7041667 290.23883 3.7041667 290.38541 L 3.7041667 294.08957 C 3.7041667 294.23615 3.8221715 294.35416 3.96875 294.35416 L 8.4666667 294.35416 C 8.6132451 294.35416 8.73125 294.23615 8.73125 294.08957 L 8.73125 290.38541 C 8.73125 290.23883 8.6132451 290.12082 8.4666667 290.12082 L 3.96875 290.12082 z M 4.7625 290.91457 L 5.2916667 290.91457 L 5.2916667 291.44374 L 5.8208333 291.44374 L 5.8208333 290.91457 L 6.35 290.91457 L 6.35 291.44374 L 6.8791667 291.44374 L 6.8791667 291.97291 L 6.35 291.97291 L 6.35 292.50207 L 6.8791667 292.50207 L 6.8791667 293.03124 L 6.35 293.03124 L 6.35 293.56041 L 5.8208333 293.56041 L 5.8208333 293.03124 L 5.2916667 293.03124 L 5.2916667 293.56041 L 4.7625 293.56041 L 4.7625 293.03124 L 4.2333333 293.03124 L 4.2333333 292.50207 L 4.7625 292.50207 L 4.7625 291.97291 L 4.2333333 291.97291 L 4.2333333 291.44374 L 4.7625 291.44374 L 4.7625 290.91457 z M 5.2916667 291.97291 L 5.2916667 292.50207 L 5.8208333 292.50207 L 5.8208333 291.97291 L 5.2916667 291.97291 z M 7.14375 293.03124 L 8.2020833 293.03124 L 8.2020833 293.56041 L 7.14375 293.56041 L 7.14375 293.03124 z " />
  </g>
</svg>
